!!!OTL@@FUR: Chei rizzoz faz a cjadene
!!!OTL@IT: Quei riccioli fatti a catena
!!!OTL@EN: Those beautiful braids of hair
**kern
*clefG2
*k[b-]
*F:
*M2/4
*MM55
*>[A,A]
*>A
8cc
8cc
=1
8.cc
16a
[4dd
=2
8dd]
8cc
8cc
8cc
=3
8cc
8b-
[4g
=4
4g]
8dd
8dd
=5
8.dd
16cc
[4ee
=6
8ee]
8dd
8dd
8dd
=7
8dd
8cc
[4a
=8
4a]
8cc
8cc
=9
8.cc
16a
[4dd
=10
8dd]
8cc
8cc
8cc
=11
8cc
8b-
[4g
=12
4g]
8dd
8dd
=13
8.dd
16cc
[4ee
=14
8ee]
8dd
8cc
8b-
=15
[2a
=16
4a]
==:!|
*-
!!!ARE: Friuli
!!!ENC: Kelly Leistikow
!!!END: 2002/03/07
!!!ref: @{OTL@@FUR}/@{OTL@EN}
